icons/star-24.svg

<svg xmlns="http://www.w3.org/2000/svg" width="24" height="24" viewBox="0 0 24 24"><path fill-rule="evenodd" d="M12 .25a.75.75 0 01.673.418l3.058 6.197 6.839.994a.75.75 0 01.415 1.279l-4.948 4.823 1.168 6.811a.75.75 0 01-1.088.791L12 18.347l-6.117 3.216a.75.75 0 01-1.088-.79l1.168-6.812-4.948-4.823a.75.75 0 01.416-1.28l6.838-.993L11.328.668A.75.75 0 0112 .25zm0 2.445L9.44 7.882a.75.75 0 01-.565.41l-5.725.832 4.143 4.038a.75.75 0 01.215.664l-.978 5.702 5.121-2.692a.75.75 0 01.698 0l5.12 2.692-.977-5.702a.75.75 0 01.215-.664l4.143-4.038-5.725-.831a.75.75 0 01-.565-.41L12 2.694z"/></svg>

<svg xmlns="http://www.w3.org/2000/svg" width="24" height="24" viewBox="0 0 24 24">
  <defs/>
  <path d="M12,0.25 C12.286,0.25 12.547,0.412 12.673,0.668 L15.731,6.865 L22.57,7.859 C22.852,7.9 23.087,8.098 23.175,8.37 C23.263,8.641 23.189,8.939 22.985,9.138 L18.037,13.961 L19.205,20.772 C19.253,21.053 19.138,21.338 18.907,21.506 C18.676,21.674 18.37,21.696 18.117,21.563 L12,18.347 L5.883,21.563 C5.63,21.696 5.325,21.673 5.094,21.506 C4.863,21.338 4.747,21.054 4.795,20.773 L5.963,13.961 L1.015,9.138 C0.81,8.939 0.736,8.64 0.825,8.369 C0.913,8.097 1.148,7.899 1.431,7.858 L8.269,6.865 L11.328,0.668 C11.454,0.412 11.715,0.25 12,0.25 Z M12,2.695 L9.44,7.882 C9.331,8.103 9.119,8.257 8.875,8.292 L3.15,9.124 L7.293,13.162 C7.47,13.334 7.55,13.583 7.508,13.826 L6.53,19.528 L11.651,16.836 C11.869,16.721 12.131,16.721 12.349,16.836 L17.469,19.528 L16.492,13.826 C16.45,13.583 16.53,13.334 16.707,13.162 L20.85,9.124 L15.125,8.293 C14.881,8.258 14.669,8.104 14.56,7.883 L12,2.694 Z"/>
</svg>
